; HEADER_BLOCK_START
; generated by OrcaSlicer 2.3.2 on 2026-04-30 at 16:03:16
; total layer number: 50
; filament_density: 1.24
; filament_diameter: 1.75
; max_z_height: 10.00
; filament: 1
; HEADER_BLOCK_END

; THUMBNAIL_BLOCK_START

;
; THUMBNAIL_BLOCK_END

; external perimeters extrusion width = 0.42mm
; perimeters extrusion width = 0.45mm
; infill extrusion width = 0.45mm
; solid infill extrusion width = 0.42mm
; top infill extrusion width = 0.42mm
; first layer extrusion width = 0.50mm

; EXECUTABLE_BLOCK_START
M73 P0 R17
M106 S0
M106 P2 S0
;TYPE:Custom
M190 S55
M104 S220
G90
M83
G1 Z5 F6000
G1 E-0.2 F800
G1 X110 Y-110 F6000
G1 E2 F800
G1 Y-110 X55 Z0.25 F4800
G1 X-55 E8 F2400
G1 Y-109.6 F2400
G1 X55 E5 F2400
G1 Y-110 X55 Z0.45 F4800
G1 X-55 E8 F2400
G1 Y-109.6 F2400
M73 P1 R17
G1 X55 E5 F2400
G92 E0
G90
G21
M83 ; use relative distances for extrusion
; filament start gcode
;right_extruder_material: PLA
SET_PRESSURE_ADVANCE ADVANCE=0.025; Override pressure advance value
M106 S0
M106 P2 S0
;LAYER_CHANGE
;Z:0.2
;HEIGHT:0.2
;BEFORE_LAYER_CHANGE
;0.2
G1 E-.8 F2100
;AFTER_LAYER_CHANGE
;0.2
;_SET_FAN_SPEED_CHANGING_LAYER
SET_VELOCITY_LIMIT ACCEL=500
G1 X14.398 Y1.244 F30000
G1 Z.6
G1 Z.2
G1 E.8 F2100
;TYPE:Inner wall
;WIDTH:0.5
G1 F3000
G1 X25.705 Y1.244 E.42113
G1 X25.705 Y11.589 E.38533
G1 X13.898 Y11.589 E.43976
G1 X13.898 Y1.244 E.38533
G1 X14.358 Y1.244 E.01713
G1 X14.398 Y1.744 F30000
;TYPE:Outer wall
G1 F3000
G1 X25.205 Y1.744 E.40251
G1 X25.205 Y11.089 E.34808
G1 X14.398 Y11.089 E.40251
G1 X14.398 Y1.784 E.34659
G1 E-.8 F2100
;WIPE_START
G1 F3000
G1 X16.398 Y1.776
;WIPE_END
G1 X21.527 Y7.429 Z.6 F30000
G1 X27.739 Y14.276 Z.6
G1 Z.2
G1 E.8 F2100
;TYPE:Inner wall
G1 F3000
G1 X32.158 Y11.834 E.18805
G1 X35.188 Y11.834 E.11286
G1 X35.188 Y15.344 E.13073
G1 X11.941 Y15.344 E.86586
G1 X11.941 Y9.78 E.20724
G1 X2.001 Y9.78 E.37023
G1 X2.001 Y3.053 E.25055
G1 X11.941 Y3.053 E.37023
G1 X11.941 Y-7.923 E.4088
G1 X17.252 Y-7.923 E.1978
G1 X17.252 Y-13.229 E.19766
G1 X16.075 Y-15.344 E.09013
G1 X26.371 Y-15.344 E.38347
G1 X25.196 Y-13.229 E.0901
G1 X25.196 Y-7.923 E.19764
G1 X35.188 Y-7.923 E.37216
G1 X35.188 Y.271 E.30519
M73 P2 R17
G1 X32.161 Y.271 E.11273
G1 X27.739 Y-2.213 E.18892
G1 X27.739 Y14.236 E.61268
G1 X28.239 Y13.429 F30000
;TYPE:Outer wall
G1 F3000
G1 X32.029 Y11.334 E.16128
G1 X35.688 Y11.334 E.13628
G1 X35.688 Y15.844 E.16797
G1 X11.441 Y15.844 E.90311
G1 X11.441 Y10.28 E.20724
G1 X1.501 Y10.28 E.37023
G1 X1.501 Y2.553 E.2878
G1 X11.441 Y2.553 E.37023
G1 X11.441 Y-8.423 E.4088
G1 X16.752 Y-8.423 E.1978
G1 X16.752 Y-13.1 E.1742
G1 X15.225 Y-15.844 E.11697
G1 X27.22 Y-15.844 E.44679
G1 X25.696 Y-13.1 E.11692
G1 X25.696 Y-8.423 E.17419
G1 X35.688 Y-8.423 E.37216
G1 X35.688 Y.771 E.34243
G1 X32.031 Y.771 E.13623
G1 X28.239 Y-1.359 E.16197
G1 X28.239 Y13.389 E.54929
G1 E-.8 F2100
;WIPE_START
G1 F3000
G1 X29.997 Y12.436
;WIPE_END
G1 X31.525 Y4.958 Z.6 F30000
G1 X34.127 Y-7.786 Z.6
G1 Z.2
G1 E.8 F2100
;TYPE:Bottom surface
;WIDTH:0.500116
G1 F4800
G1 X34.845 Y-7.067 E.03786
G1 X34.845 Y-6.42 E.02409
G1 X33.686 Y-7.58 E.06109
G1 X33.039 Y-7.58 E.02409
G1 X34.845 Y-5.774 E.09515
G1 X34.845 Y-5.127 E.02409
G1 X32.393 Y-7.58 E.12922
G1 X31.746 Y-7.58 E.02409
G1 X34.845 Y-4.481 E.16329
G1 X34.845 Y-3.834 E.02409
G1 X31.1 Y-7.58 E.19735
G1 X30.453 Y-7.58 E.02409
G1 X34.845 Y-3.188 E.23142
G1 X34.845 Y-2.541 E.02409
G1 X29.806 Y-7.58 E.26548
G1 X29.16 Y-7.58 E.02409
G1 X34.845 Y-1.894 E.29955
G1 X34.845 Y-1.248 E.02409
G1 X28.513 Y-7.58 E.33362
G1 X27.867 Y-7.58 E.02409
G1 X34.845 Y-.601 E.36768
G1 X34.845 Y-.072 E.01973
G1 X34.728 Y-.072 E.00436
G1 X27.22 Y-7.58 E.39558
G1 X26.574 Y-7.58 E.02409
G1 X34.082 Y-.072 E.39558
G1 X33.435 Y-.072 E.02409
G1 X25.721 Y-7.786 E.40642
G1 E-.8 F2100
;WIPE_START
G1 F4800
G1 X27.135 Y-6.371
;WIPE_END
G1 X26.002 Y-13.919 Z.6 F30000
G1 X25.879 Y-14.741 Z.6
G1 Z.2
G1 E.8 F2100
G1 F4800
G1 X25.618 Y-15.001 E.01373
G1 X24.971 Y-15.001 E.02409
G1 X25.496 Y-14.476 E.02767
G1 X25.266 Y-14.06 E.01772
G1 X24.325 Y-15.001 E.04957
G1 X23.678 Y-15.001 E.02409
G1 X25.035 Y-13.645 E.07148
G1 X24.853 Y-13.318 E.01393
G1 X24.853 Y-13.18 E.00515
G1 X23.032 Y-15.001 E.09598
G1 X22.385 Y-15.001 E.02409
G1 X24.853 Y-12.533 E.13005
G1 X24.853 Y-11.886 E.02409
G1 X21.739 Y-15.001 E.16411
M73 P3 R17
G1 X21.092 Y-15.001 E.02409
G1 X24.853 Y-11.24 E.19818
G1 X24.853 Y-10.593 E.02409
G1 X20.445 Y-15.001 E.23225
G1 X19.799 Y-15.001 E.02409
G1 X24.853 Y-9.947 E.26631
G1 X24.853 Y-9.3 E.02409
G1 X19.152 Y-15.001 E.30038
G1 X18.506 Y-15.001 E.02409
G1 X25.059 Y-8.448 E.34528
G1 E-.8 F2100
;WIPE_START
G1 F4800
G1 X23.645 Y-9.862
;WIPE_END
G1 X17.949 Y-14.943 Z.6 F30000
G1 X17.653 Y-15.207 Z.6
G1 Z.2
G1 E.8 F2100
G1 F4800
G1 X24.853 Y-8.007 E.37935
G1 X24.853 Y-7.58 E.01591
G1 X25.28 Y-7.58 E.01591
G1 X32.789 Y-.072 E.39558
G1 X32.251 Y-.072 E.02002
G1 X32.002 Y-.212 E.01064
G1 X17.212 Y-15.001 E.77923
G1 X16.658 Y-15.001 E.02065
G1 X16.774 Y-14.793 E.00886
G1 X30.527 Y-1.04 E.72461
G1 X29.052 Y-1.869 E.06304
M73 P3 R16
G1 X17.585 Y-13.336 E.60414
G1 X17.595 Y-12.679 E.02445
G1 X27.576 Y-2.698 E.52591
G1 X27.396 Y-2.799 E.00768
G1 X27.396 Y-2.231 E.02115
G1 X17.595 Y-12.033 E.51643
G1 X17.595 Y-11.386 E.02409
G1 X27.396 Y-1.584 E.51643
G1 X27.396 Y-.938 E.02409
G1 X17.595 Y-10.74 E.51643
G1 X17.595 Y-10.093 E.02409
G1 X27.396 Y-.291 E.51643
G1 X27.396 Y.355 E.02409
G1 X17.595 Y-9.447 E.51643
G1 X17.595 Y-8.8 E.02409
G1 X27.396 Y1.002 E.51643
G1 X27.396 Y1.648 E.02409
G1 X17.595 Y-8.153 E.51643
G1 X17.595 Y-7.58 E.02137
G1 X17.522 Y-7.58 E.00272
G1 X27.396 Y2.295 E.52028
G1 X27.396 Y2.942 E.02409
G1 X26.048 Y1.593 E.07105
G1 X26.048 Y2.24 E.02409
G1 X27.396 Y3.588 E.07105
G1 X27.396 Y4.235 E.02409
G1 X26.048 Y2.886 E.07105
G1 X26.048 Y3.533 E.02409
G1 X27.396 Y4.881 E.07105
G1 X27.396 Y5.528 E.02409
G1 X26.048 Y4.179 E.07105
G1 X26.048 Y4.826 E.02409
G1 X27.396 Y6.174 E.07105
G1 X27.396 Y6.821 E.02409
G1 X26.048 Y5.472 E.07105
G1 X26.048 Y6.119 E.02409
G1 X27.396 Y7.468 E.07105
G1 X27.396 Y8.114 E.02409
G1 X26.048 Y6.766 E.07105
G1 X26.048 Y7.412 E.02409
G1 X27.396 Y8.761 E.07105
G1 X27.396 Y9.407 E.02409
G1 X26.048 Y8.059 E.07105
G1 X26.048 Y8.705 E.02409
G1 X27.396 Y10.054 E.07105
G1 X27.396 Y10.7 E.02409
G1 X26.048 Y9.352 E.07105
G1 X26.048 Y9.998 E.02409
G1 X27.396 Y11.347 E.07105
G1 X27.396 Y11.994 E.02409
G1 X26.048 Y10.645 E.07105
G1 X26.048 Y11.292 E.02409
G1 X27.396 Y12.64 E.07105
G1 X27.396 Y13.287 E.02409
G1 X26.042 Y11.932 E.07138
G1 X25.395 Y11.932 E.02409
G1 X27.602 Y14.139 E.11629
G1 E-.8 F2100
;WIPE_START
G1 F4800
G1 X26.188 Y12.725
;WIPE_END
G1 X33.819 Y12.562 Z.6 F30000
G1 X35.051 Y12.536 Z.6
G1 Z.2
G1 E.8 F2100
G1 F4800
G1 X34.692 Y12.177 E.0189
G1 X34.046 Y12.177 E.02409
G1 X34.845 Y12.977 E.04213
G1 X34.845 Y13.623 E.02409
G1 X33.399 Y12.177 E.0762
G1 X32.752 Y12.177 E.02409
G1 X34.845 Y14.27 E.11026
G1 X34.845 Y14.916 E.02409
G1 X32.156 Y12.227 E.14169
G1 X31.74 Y12.457 E.01773
G1 X34.283 Y15.001 E.13404
M73 P4 R16
G1 X33.637 Y15.001 E.02409
G1 X31.323 Y12.687 E.12191
G1 X30.907 Y12.918 E.01773
G1 X32.99 Y15.001 E.10978
G1 X32.344 Y15.001 E.02409
G1 X30.49 Y13.148 E.09766
G1 X30.074 Y13.378 E.01773
G1 X31.697 Y15.001 E.08553
G1 X31.051 Y15.001 E.02409
G1 X29.657 Y13.608 E.07341
G1 X29.241 Y13.838 E.01773
G1 X30.404 Y15.001 E.06128
G1 X29.757 Y15.001 E.02409
G1 X28.825 Y14.068 E.04915
G1 X28.408 Y14.298 E.01773
G1 X29.111 Y15.001 E.03703
G1 X28.464 Y15.001 E.02409
G1 X27.84 Y14.377 E.03288
G1 X28.023 Y15.207 F30000
G1 F4800
G1 X24.748 Y11.932 E.17255
G1 X24.102 Y11.932 E.02409
G1 X27.171 Y15.001 E.16171
G1 X26.525 Y15.001 E.02409
G1 X23.455 Y11.932 E.16171
G1 X22.809 Y11.932 E.02409
G1 X25.878 Y15.001 E.16171
G1 X25.231 Y15.001 E.02409
G1 X22.162 Y11.932 E.16171
G1 X21.516 Y11.932 E.02409
G1 X24.585 Y15.001 E.16171
G1 X23.938 Y15.001 E.02409
G1 X20.869 Y11.932 E.16171
G1 X20.222 Y11.932 E.02409
G1 X23.292 Y15.001 E.16171
G1 X22.645 Y15.001 E.02409
G1 X19.576 Y11.932 E.16171
G1 X18.929 Y11.932 E.02409
G1 X21.999 Y15.001 E.16171
G1 X21.352 Y15.001 E.02409
G1 X18.283 Y11.932 E.16171
G1 X17.636 Y11.932 E.02409
G1 X20.705 Y15.001 E.16171
G1 X20.059 Y15.001 E.02409
G1 X16.99 Y11.932 E.16171
G1 X16.343 Y11.932 E.02409
G1 X19.412 Y15.001 E.16171
G1 X18.766 Y15.001 E.02409
G1 X15.696 Y11.932 E.16171
G1 X15.05 Y11.932 E.02409
G1 X18.119 Y15.001 E.16171
G1 X17.473 Y15.001 E.02409
G1 X14.198 Y11.726 E.17255
G1 E-.8 F2100
;WIPE_START
G1 F4800
G1 X15.612 Y13.14
;WIPE_END
G1 X20.475 Y7.258 Z.6 F30000
G1 X25.561 Y1.107 Z.6
G1 Z.2
G1 E.8 F2100
G1 F4800
G1 X16.875 Y-7.58 E.45767
G1 X16.228 Y-7.58 E.02409
G1 X24.709 Y.901 E.44683
G1 X24.063 Y.901 E.02409
G1 X15.582 Y-7.58 E.44683
G1 X14.935 Y-7.58 E.02409
G1 X23.416 Y.901 E.44683
G1 X22.769 Y.901 E.02409
G1 X14.289 Y-7.58 E.44683
G1 X13.642 Y-7.58 E.02409
G1 X22.123 Y.901 E.44683
G1 X21.476 Y.901 E.02409
G1 X12.996 Y-7.58 E.44683
G1 X12.349 Y-7.58 E.02409
G1 X20.83 Y.901 E.44683
G1 X20.183 Y.901 E.02409
G1 X12.284 Y-6.998 E.4162
G1 X12.284 Y-6.352 E.02409
G1 X19.537 Y.901 E.38213
G1 X18.89 Y.901 E.02409
G1 X12.284 Y-5.705 E.34806
G1 X12.284 Y-5.059 E.02409
G1 X18.243 Y.901 E.314
G1 X17.597 Y.901 E.02409
G1 X12.284 Y-4.412 E.27993
G1 X12.284 Y-3.766 E.02409
G1 X16.95 Y.901 E.24587
G1 X16.304 Y.901 E.02409
G1 X12.284 Y-3.119 E.2118
G1 X12.284 Y-2.472 E.02409
G1 X15.657 Y.901 E.17773
G1 X15.011 Y.901 E.02409
G1 X12.284 Y-1.826 E.14367
G1 X12.284 Y-1.179 E.02409
G1 X14.364 Y.901 E.1096
G1 X13.717 Y.901 E.02409
G1 X12.284 Y-.533 E.07553
G1 X12.284 Y.114 E.02409
M73 P5 R16
G1 X13.556 Y1.386 E.067
G1 X13.556 Y2.032 E.02409
G1 X12.284 Y.76 E.067
G1 X12.284 Y1.407 E.02409
G1 X13.556 Y2.679 E.067
G1 X13.556 Y3.325 E.02409
G1 X12.284 Y2.054 E.067
G1 X12.284 Y2.7 E.02409
G1 X13.556 Y3.972 E.067
G1 X13.556 Y4.618 E.02409
G1 X12.284 Y3.347 E.067
G1 X12.284 Y3.396 E.00183
G1 X11.686 Y3.396 E.02226
G1 X13.556 Y5.265 E.09849
G1 X13.556 Y5.912 E.02409
G1 X11.04 Y3.396 E.13255
G1 X10.393 Y3.396 E.02409
G1 X13.556 Y6.558 E.16662
G1 X13.556 Y7.205 E.02409
G1 X9.747 Y3.396 E.20069
G1 X9.1 Y3.396 E.02409
G1 X13.556 Y7.851 E.23475
G1 X13.556 Y8.498 E.02409
G1 X8.453 Y3.396 E.26882
G1 X7.807 Y3.396 E.02409
G1 X13.556 Y9.144 E.30289
G1 X13.556 Y9.791 E.02409
G1 X7.16 Y3.396 E.33695
G1 X6.514 Y3.396 E.02409
G1 X13.556 Y10.438 E.37102
G1 X13.556 Y11.084 E.02409
G1 X5.867 Y3.396 E.40508
G1 X5.221 Y3.396 E.02409
G1 X11.262 Y9.437 E.3183
G1 X10.615 Y9.437 E.02409
G1 X4.574 Y3.396 E.3183
G1 X3.927 Y3.396 E.02409
G1 X9.969 Y9.437 E.3183
G1 X9.322 Y9.437 E.02409
G1 X3.281 Y3.396 E.3183
G1 X2.634 Y3.396 E.02409
G1 X8.676 Y9.437 E.3183
G1 X8.029 Y9.437 E.02409
G1 X2.344 Y3.752 E.29955
G1 X2.344 Y4.398 E.02409
G1 X7.382 Y9.437 E.26548
G1 X6.736 Y9.437 E.02409
G1 X2.344 Y5.045 E.23141
G1 X2.344 Y5.691 E.02409
G1 X6.089 Y9.437 E.19735
G1 X5.443 Y9.437 E.02409
G1 X2.344 Y6.338 E.16328
G1 X2.344 Y6.985 E.02409
G1 X4.796 Y9.437 E.12922
G1 X4.15 Y9.437 E.02409
G1 X2.344 Y7.631 E.09515
G1 X2.344 Y8.278 E.02409
G1 X3.503 Y9.437 E.06108
G1 X2.856 Y9.437 E.02409
G1 X2.138 Y8.719 E.03785
G1 E-.8 F2100
;WIPE_START
G1 F4800
G1 X2.856 Y9.437
G1 X3.503 Y9.437
G1 X3.264 Y9.199
;WIPE_END
G1 X10.843 Y10.106 Z.6 F30000
G1 X12.078 Y10.253 Z.6
G1 Z.2
G1 E.8 F2100
G1 F4800
G1 X16.826 Y15.001 E.25015
G1 X16.179 Y15.001 E.02409
G1 X12.284 Y11.106 E.20525
G1 X12.284 Y11.752 E.02409
G1 X15.533 Y15.001 E.17118
G1 X14.886 Y15.001 E.02409
G1 X12.284 Y12.399 E.13712
G1 X12.284 Y13.045 E.02409
G1 X14.24 Y15.001 E.10305
G1 X13.593 Y15.001 E.02409
G1 X12.284 Y13.692 E.06898
G1 X12.284 Y14.338 E.02409
G1 X12.947 Y15.001 E.03492
G1 X12.3 Y15.001 E.02409
G1 X12.078 Y14.779 E.01169
G1 E-.8 F2100
;WIPE_START
G1 F4800
G1 X12.3 Y15.001
G1 X12.947 Y15.001
G1 X12.284 Y14.338
G1 X12.284 Y14.236
;WIPE_END
G1 X5.555 Y10.634 Z.6 F30000
G1 X-11.984 Y1.244 Z.6
G1 Z.2
G1 E.8 F2100
;TYPE:Inner wall
;WIDTH:0.5
G1 F3000
G1 X-11.484 Y1.244 E.01862
G1 X-11.484 Y11.589 E.38533
G1 X-23.291 Y11.589 E.43976
G1 X-23.291 Y1.244 E.38533
G1 X-12.024 Y1.244 E.41964
G1 X-11.984 Y1.744 F30000
;TYPE:Outer wall
G1 F3000
G1 X-11.984 Y11.089 E.34808
G1 X-22.791 Y11.089 E.40251
G1 X-22.791 Y1.744 E.34808
M73 P6 R16
G1 X-12.024 Y1.744 E.40102
G1 E-.8 F2100
;WIPE_START
G1 F3000
G1 X-12.015 Y3.744
;WIPE_END
G1 X-10.209 Y11.159 Z.6 F30000
G1 X-9.45 Y14.276 Z.6
G1 Z.2
G1 E.8 F2100
;TYPE:Inner wall
G1 F3000
G1 X-5.031 Y11.834 E.18805
G1 X-2.001 Y11.834 E.11286
G1 X-2.001 Y15.344 E.13073
G1 X-25.248 Y15.344 E.86586
G1 X-25.248 Y9.78 E.20724
G1 X-35.188 Y9.78 E.37023
G1 X-35.188 Y3.053 E.25055
G1 X-25.248 Y3.053 E.37023
G1 X-25.248 Y-7.923 E.4088
G1 X-19.937 Y-7.923 E.1978
G1 X-19.937 Y-13.229 E.19766
G1 X-21.114 Y-15.344 E.09013
G1 X-10.818 Y-15.344 E.38347
G1 X-11.993 Y-13.229 E.0901
G1 X-11.993 Y-7.923 E.19764
G1 X-2.001 Y-7.923 E.37216
G1 X-2.001 Y.271 E.30519
G1 X-5.028 Y.271 E.11273
G1 X-9.45 Y-2.213 E.18892
G1 X-9.45 Y14.236 E.61268
G1 X-8.95 Y13.429 F30000
;TYPE:Outer wall
G1 F3000
G1 X-5.16 Y11.334 E.16128
G1 X-1.501 Y11.334 E.13628
G1 X-1.501 Y15.844 E.16797
G1 X-25.748 Y15.844 E.90311
G1 X-25.748 Y10.28 E.20724
G1 X-35.688 Y10.28 E.37023
G1 X-35.688 Y2.553 E.2878
G1 X-25.748 Y2.553 E.37023
G1 X-25.748 Y-8.423 E.4088
G1 X-20.437 Y-8.423 E.1978
G1 X-20.437 Y-13.1 E.1742
G1 X-21.964 Y-15.844 E.11697
G1 X-9.969 Y-15.844 E.44679
G1 X-11.493 Y-13.1 E.11692
G1 X-11.493 Y-8.423 E.17419
G1 X-1.501 Y-8.423 E.37216
G1 X-1.501 Y.771 E.34243
G1 X-5.158 Y.771 E.13623
G1 X-8.95 Y-1.359 E.16197
G1 X-8.95 Y13.389 E.54929
G1 E-.8 F2100
;WIPE_START
G1 F3000
G1 X-7.191 Y12.436
;WIPE_END
G1 X-5.664 Y4.958 Z.6 F30000
G1 X-3.062 Y-7.786 Z.6
G1 Z.2
M73 P7 R16
G1 E.8 F2100
;TYPE:Bottom surface
;WIDTH:0.500116
G1 F4800
G1 X-2.344 Y-7.067 E.03786
G1 X-2.344 Y-6.42 E.02409
G1 X-3.503 Y-7.58 E.06109
G1 X-4.15 Y-7.58 E.02409
G1 X-2.344 Y-5.774 E.09515
G1 X-2.344 Y-5.127 E.02409
G1 X-4.796 Y-7.58 E.12922
G1 X-5.443 Y-7.58 E.02409
G1 X-2.344 Y-4.481 E.16329
G1 X-2.344 Y-3.834 E.02409
G1 X-6.089 Y-7.58 E.19735
G1 X-6.736 Y-7.58 E.02409
G1 X-2.344 Y-3.188 E.23142
G1 X-2.344 Y-2.541 E.02409
G1 X-7.383 Y-7.58 E.26548
G1 X-8.029 Y-7.58 E.02409
G1 X-2.344 Y-1.894 E.29955
G1 X-2.344 Y-1.248 E.02409
G1 X-8.676 Y-7.58 E.33362
G1 X-9.322 Y-7.58 E.02409
G1 X-2.344 Y-.601 E.36768
G1 X-2.344 Y-.072 E.01973
G1 X-2.461 Y-.072 E.00436
G1 X-9.969 Y-7.58 E.39558
G1 X-10.615 Y-7.58 E.02409
G1 X-3.107 Y-.072 E.39558
G1 X-3.754 Y-.072 E.02409
G1 X-11.468 Y-7.786 E.40642
G1 E-.8 F2100
;WIPE_START
G1 F4800
G1 X-10.053 Y-6.371
;WIPE_END
G1 X-11.187 Y-13.919 Z.6 F30000
G1 X-11.31 Y-14.741 Z.6
G1 Z.2
G1 E.8 F2100
G1 F4800
G1 X-11.571 Y-15.001 E.01373
G1 X-12.218 Y-15.001 E.02409
G1 X-11.692 Y-14.476 E.02767
G1 X-11.923 Y-14.06 E.01772
G1 X-12.864 Y-15.001 E.04957
G1 X-13.511 Y-15.001 E.02409
G1 X-12.154 Y-13.645 E.07148
G1 X-12.336 Y-13.318 E.01393
G1 X-12.336 Y-13.18 E.00515
G1 X-14.157 Y-15.001 E.09598
G1 X-14.804 Y-15.001 E.02409
G1 X-12.336 Y-12.533 E.13005
G1 X-12.336 Y-11.886 E.02409
G1 X-15.45 Y-15.001 E.16411
G1 X-16.097 Y-15.001 E.02409
G1 X-12.336 Y-11.24 E.19818
G1 X-12.336 Y-10.593 E.02409
G1 X-16.744 Y-15.001 E.23225
G1 X-17.39 Y-15.001 E.02409
G1 X-12.336 Y-9.947 E.26631
G1 X-12.336 Y-9.3 E.02409
G1 X-18.037 Y-15.001 E.30038
G1 X-18.683 Y-15.001 E.02409
G1 X-12.13 Y-8.448 E.34528
G1 E-.8 F2100
;WIPE_START
G1 F4800
G1 X-13.544 Y-9.862
;WIPE_END
G1 X-19.24 Y-14.943 Z.6 F30000
G1 X-19.536 Y-15.207 Z.6
G1 Z.2
G1 E.8 F2100
G1 F4800
G1 X-12.336 Y-8.007 E.37935
G1 X-12.336 Y-7.58 E.01591
G1 X-11.909 Y-7.58 E.01591
G1 X-4.4 Y-.072 E.39558
G1 X-4.938 Y-.072 E.02002
G1 X-5.187 Y-.212 E.01064
G1 X-19.976 Y-15.001 E.77923
G1 X-20.531 Y-15.001 E.02065
G1 X-20.415 Y-14.793 E.00886
G1 X-6.662 Y-1.04 E.72461
G1 X-8.137 Y-1.869 E.06304
G1 X-19.604 Y-13.336 E.60414
G1 X-19.594 Y-12.679 E.02445
G1 X-9.613 Y-2.698 E.52591
G1 X-9.793 Y-2.799 E.00768
G1 X-9.793 Y-2.231 E.02115
G1 X-19.594 Y-12.033 E.51644
G1 X-19.594 Y-11.386 E.02409
G1 X-9.793 Y-1.584 E.51644
G1 X-9.793 Y-.938 E.02409
G1 X-19.594 Y-10.74 E.51644
G1 X-19.594 Y-10.093 E.02409
G1 X-9.793 Y-.291 E.51644
G1 X-9.793 Y.355 E.02409
